X: 39161
T: Sweets Of May, The
R: jig
M: 6/8
K: Gmajor
d2c|:BcB ABA|G2G G2A|B2B GAB|c3 d2c|
BcB ABA|G2G G2B|d2d cBA|G3 G3:|
|:A2A A2G|E2F G3|A2A c2d|e2d c2B|
A2A A2G|E2F G3|A2A c2B|A3 A3:|
|:d3 d3|D3 D3|c3 c3|D3 DEF|
G2G G2A|B2B B2c|ded cBA|1 G3 G3:|2 G3||

